icon-svg/table-wash.svg

<svg xmlns="http://www.w3.org/2000/svg" fill="#44739e" viewBox="0 0 24 24"><path d="M21.431 16.164a27.52 27.52 0 0 1-4.347-4.443c-3.949-5.077-2.543-6.772 2.526-2.7a26.9 26.9 0 0 1 4.45 4.549c3.986 5.184 2.335 6.628-2.629 2.594M28 17.267c0-.077 0-.162-.007-.238 0-.553-.24-1.326-.757-2.293-1.696-3.188-5.648-7.229-8.768-8.962-.878-.49-1.59-.736-2.115-.766a.68.68 0 0 0-.18 0C16.113 5 16.06 5 16 5 11.5 5 4 12.667 4 17.267c0 4.264 2.125 8.013 5.351 10.211.498.34 1.084.522 1.683.522h8.252c.633 0 1.247-.204 1.761-.579C24.628 24.813 28 20.351 28 17.267"/></svg>

<?xml version="1.0" encoding="UTF-8"?>
<svg width="32px" height="32px" fill="#44739e" viewBox="0 0 32 32" version="1.1" xmlns="http://www.w3.org/2000/svg" xmlns:xlink="http://www.w3.org/1999/xlink">

            <path d="M21.431,16.164 C19.826,14.859 18.362,13.363 17.084,11.721 C13.135,6.644 14.541,4.949 19.61,9.021 C21.261,10.349 22.761,11.882 24.06,13.57 C28.046,18.754 26.395,20.198 21.431,16.164 M28,17.267 C28,17.19 28,17.105 27.993,17.029 C27.993,16.476 27.753,15.703 27.236,14.736 C25.54,11.548 21.588,7.507 18.468,5.774 C17.59,5.284 16.878,5.038 16.353,5.008 C16.293,5 16.233,5 16.173,5.008 C16.113,5 16.06,5 16,5 C11.5,5 4,12.667 4,17.267 C4,21.531 6.125,25.28 9.351,27.478 C9.849,27.818 10.435,28 11.034,28 L19.286,28 C19.919,28 20.533,27.796 21.047,27.421 C24.628,24.813 28,20.351 28,17.267"></path>
</svg>
